public/img/icons/astronaut.svg

<svg width="64" height="64" viewBox="0 0 64 64" fill="none" xmlns="http://www.w3.org/2000/svg">
<g clip-path="url(#clip0_123_9193)">
<path d="M26.2149 16.1998C25.9066 16.4946 25.585 16.7627 25.25 17.0039L30.5368 23.5236V16.0725C30.5368 15.6302 30.175 15.2684 29.7328 15.2684H27.0592C26.8045 15.5967 26.5231 15.905 26.2149 16.1998Z" fill="white"/>
<path d="M12.5987 12.1392C12.7327 12.5814 12.9069 13.0036 13.1146 13.4056C13.4765 14.1025 13.9589 14.7323 14.5218 15.2751C15.9088 16.6085 17.8252 17.4327 19.9426 17.4327C20.8807 17.4327 21.7719 17.2719 22.6027 16.9771C22.8909 16.8766 23.1656 16.756 23.4336 16.6286C23.6748 16.508 23.9094 16.3807 24.1304 16.24C24.5727 15.9586 24.9882 15.6369 25.3633 15.2751C26.737 13.9551 27.5813 12.1325 27.5813 10.129C27.5813 6.09516 24.1572 2.82523 19.9425 2.82523C15.7278 2.82523 12.3037 6.09516 12.3037 10.129C12.3037 10.464 12.3305 10.7856 12.3707 11.1073C12.4178 11.4557 12.4982 11.8041 12.5987 12.1392ZM19.9426 6.39669C22.9781 6.39669 25.444 8.06516 25.444 10.1223C25.444 12.1794 22.9781 13.8479 19.9426 13.8479C16.9072 13.8479 14.4414 12.1794 14.4414 10.1223C14.4414 8.06516 16.9072 6.39669 19.9426 6.39669Z" fill="white"/>
<path d="M4.63863 12.4206C4.79275 12.7087 5.00047 12.9634 5.2551 13.1644L9.1683 16.2668L13.832 19.9589C13.2222 21.0042 12.8738 22.217 12.8738 23.517V31.6315V48.7182V60.1764C12.8738 61.9186 14.2876 63.3257 16.0231 63.3257C17.7653 63.3257 19.1724 61.9119 19.1724 60.1764V48.7182H20.7069V60.1764C20.7069 61.9186 22.1207 63.3257 23.8562 63.3257C25.5984 63.3257 27.0055 61.9119 27.0055 60.1764V48.7182V31.6315V28.7234L29.6322 32.0402C30.0007 32.5093 30.53 32.8108 31.113 32.898C31.2337 32.9181 31.3543 32.9247 31.4749 32.9247H39.1807C39.1941 32.9247 39.2074 32.9247 39.2209 32.9247V62.0526C39.2209 62.7026 39.7435 63.2252 40.3935 63.2252C41.0435 63.2252 41.5661 62.7026 41.5661 62.0526V5.45191C41.5661 4.80194 41.0435 4.27929 40.3935 4.27929C39.7435 4.27929 39.2209 4.80194 39.2209 5.45191V28.241C39.2075 28.241 39.1941 28.241 39.1807 28.241H32.614L31.1197 26.358C31.1197 26.358 24.8546 18.5853 24.017 17.7477C22.7706 18.3641 21.3903 18.6925 19.9497 18.6925C17.5844 18.6925 15.353 17.808 13.6779 16.2065C13.3696 15.9117 13.0949 15.6034 12.8336 15.2818C12.0496 14.2834 11.5135 13.1443 11.2455 11.9248L8.57193 9.80735L4.42421 1.92734C4.00207 1.12996 3.19128 0.674316 2.347 0.674316C1.97846 0.674316 1.60322 0.761425 1.25479 0.942344C0.108968 1.54541 -0.333277 2.95925 0.269785 4.10507L4.63863 12.4206Z" fill="white"/>
<path d="M43.8041 18.3708H63.1958C63.6381 18.3708 63.9999 18.009 63.9999 17.5667V5.32459C63.9999 4.88234 63.6381 4.52051 63.1958 4.52051H43.8041C43.3618 4.52051 43 4.88234 43 5.32459V17.5667C43 18.009 43.3618 18.3708 43.8041 18.3708Z" fill="white"/>
<path d="M28.4531 33.3469V39.2636H29.733C30.1753 39.2636 30.5371 38.9018 30.5371 38.4596V34.2582C29.7598 34.1777 29.0361 33.8561 28.4531 33.3469Z" fill="white"/>
<path d="M9.97889 38.1178H11.5401V31.4037V23.517C11.5401 22.4248 11.7546 21.3459 12.1633 20.3408L9.1748 17.9755V37.3137C9.1748 37.7559 9.53664 38.1178 9.97889 38.1178Z" fill="white"/>
</g>
<defs>
<clipPath id="clip0_123_9193">
<rect width="64" height="64" fill="white"/>
</clipPath>
</defs>
</svg>

<svg xmlns="http://www.w3.org/2000/svg" width="64" height="64" fill="none" viewBox="0 0 64 64"><g fill="#fff" clip-path="url(#a)"><path d="M26.215 16.2q-.462.443-.965.804l5.287 6.52v-7.451a.806.806 0 0 0-.804-.805h-2.674a8.5 8.5 0 0 1-.844.932m-13.616-4.06q.202.662.516 1.266a7.3 7.3 0 0 0 1.407 1.87 7.8 7.8 0 0 0 5.42 2.157 7.9 7.9 0 0 0 4.188-1.193 8 8 0 0 0 1.233-.965c1.374-1.32 2.218-3.142 2.218-5.146 0-4.034-3.424-7.304-7.639-7.304s-7.638 3.27-7.638 7.304a6.8 6.8 0 0 0 .295 2.01m7.344-5.743c3.035 0 5.501 1.668 5.501 3.725s-2.466 3.726-5.501 3.726-5.502-1.669-5.502-3.726 2.466-3.725 5.502-3.725"/><path d="M4.639 12.42c.154.289.361.543.616.744l3.913 3.103 4.664 3.692a7.03 7.03 0 0 0-.958 3.558v36.659a3.15 3.15 0 0 0 6.298 0V48.718h1.535v11.458a3.15 3.15 0 0 0 6.299 0V28.723l2.626 3.317a2.31 2.31 0 0 0 1.843.885h7.746v29.128c0 .65.523 1.172 1.173 1.172a1.17 1.17 0 0 0 1.172-1.172V5.452a1.17 1.17 0 0 0-1.172-1.173 1.17 1.17 0 0 0-1.173 1.173V28.24h-6.607l-1.494-1.883s-6.265-7.773-7.103-8.61a9.14 9.14 0 0 1-4.067.944c-2.366 0-4.597-.884-6.272-2.486a10 10 0 0 1-.844-.924 8.3 8.3 0 0 1-1.588-3.357L8.572 9.807l-4.148-7.88a2.346 2.346 0 0 0-3.17-.985A2.34 2.34 0 0 0 .27 4.105zm39.165 5.95h19.392a.806.806 0 0 0 .804-.803V5.325a.806.806 0 0 0-.804-.804H43.804a.806.806 0 0 0-.804.804v12.242c0 .442.362.804.804.804"/><path d="M28.453 33.347v5.917h1.28a.806.806 0 0 0 .804-.804v-4.202a3.75 3.75 0 0 1-2.084-.911M9.979 38.118h1.561V23.517a8.5 8.5 0 0 1 .623-3.176l-2.988-2.366v19.339c0 .442.362.804.804.804"/></g><defs><clipPath id="a"><path fill="#fff" d="M0 0h64v64H0z"/></clipPath></defs></svg>
